X: 19197
T: Island Lake, The
R: waltz
M: 3/4
K: Gmajor
Be dB AG|AB GE D2|Be dB AG|AG AB d2|
Be dB AG|AB GE D2|AG AB GE|DE GA G2|
A/B/e dB AG|AB GE D2|Be dB AG|Ag fe d2|
Be dB AG|AB GE D2|AG AB GE|DE GA G/A/B||
|:A2 AG AB|GE DE GB|A2 AG AB|dB AG EG|
GA AG AB|GE DE GB|1 AB AG AB|dB AG EG:|2 AB AG EG|DE GA G2||

